X:1
T:Jesus, Savior, We Would See Thee
T:Jesus, Savior, We Would See Thee
T:Ira David Sankey
T:John Bancroft Devins, 1902
T:Public Domain Courtesy of the Cyber Hymnal™
T:Public Domain Courtesy of the Cyber Hymnal™
C:Ira David Sankey
Z:Public Domain
Z:Courtesy of the Cyber Hymnal™
%%score ( 1 2 ) ( 3 4 )
L:1/8
Q:1/4=110
M:9/8
K:F
V:1 treble 
V:2 treble 
V:3 bass 
V:4 bass 
V:1
 (CF)[CG] | [FA]3 [EG]3 (FA)[Fd] | [Fc]3 [FA]3 ([FA][EG])F | %3
w: 1.~Je- * sus,|Sav- ior, we * would|see Thee, Lift- * ed|
w: 2.~Je- * sus,|Teach- er, we * would|hear Thee, Hear * Thy|
w: 3.~Je- * sus,|Mas- ter, we * would|serve Thee, Fill * each|
w: 4.~See- * ing,|hear- ing, learn- * ing,|speak- ing, Serv- * ing|
 [EG]3- ([EG][FA])[EG] ([DF][CE])[=B,D] | C6 (CF)[CG] | [FA]3 [EG]3 (FA)[Fd] | %6
w: high * * up- on * the|tree; Bear- * ing|there our sins * and|
w: voice * * and it * a-|lone: Learn * the|les- sons Thou * wouldst|
w: day * * with lov- * ing|deeds; Com- * fort|those whose hearts * are|
w: dai- * * ly, faith- * ful-|ly; May * men|see in us, * Thy|
 [Fc]3 [FA]3 [Fc]2 [Fd] | [Fc]3- [Fc]2 F [FA]2 [EG] | F6 ||"^Refrain" [EG][EG][FA] | %10
w: sor- rows, Set- ting|us * for- ev- er|free.||
w: teach us, Speak the|words * that Thou wilt|own.||
w: wea- ry, Like Thy-|self * sup- ply their|needs.||
w: breth- ren, All that|Thou * wouldst have us|be.||
 [GB]3 [EG]3 [FA][FA][FB] | [Fd]3 [Fc]3 [Fc][Fc][Fc] | [F=B]3 [Ec]2 [Ge] dA[FB] | [Ec]6 C[CF][CG] | %14
w: ||||
w: ||||
w: ||||
w: ||||
 [FA]3 [EG]2 F F[FA][Fd] | [Fc]3 [FA]3 [Fc][Fc][Fd] | [Fc]3 F2 [FB] [FA][FA][EG] | F6 |] %18
w: ||||
w: ||||
w: ||||
w: ||||
V:2
 C2 x | x6 F2 x | x8 F | x9 | C6 C2 x | x6 F2 x | x9 | x5 F x3 | F6 || x3 | x9 | x9 | x6 F2 x | %13
 x6 C x2 | x5 F F x2 | x9 | x3 F2 x4 | F6 |] %18
V:3
 [F,A,]2 [F,B,] | [F,C]3 [C,B,]3 (A,C)[F,B,] | [F,A,]3 [F,C]3 (CB,)[F,A,] | %3
w: ~ ~|~ ~ ~ * ~|~ ~ ~ * ~|
 [C,C]3- [C,C]2 [C,G,] [G,,G,]2 [G,,F,] | [C,E,]6 [F,A,]2 [F,B,] | [F,C]3 [C,B,]3 (A,C)[F,B,] | %6
w: ~ * ~ ~ ~|~ ~ ~|~ ~ ~ * ~|
 [F,A,]3 [F,C]3 [F,A,]2 [F,B,] | [F,A,]3- [F,A,]2 [A,,C] [C,C]2 [C,B,] | [F,A,]6 || %9
w: ~ ~ ~ ~|~ * ~ ~ ~|~|
 [C,C][C,C][C,C] | [C,C]3 [C,C]3 [F,C][F,C][F,G,] | [F,B,]3 [F,A,]3 [F,A,][F,A,][F,A,] | %12
w: We would see|Je- sus, we would see|Je- sus; He is our|
 [D,G,]3 [C,F,]2 [C,C] A,D[G,D] | (C3 B,3) [F,A,][F,A,][F,B,] | %14
w: Sav- ior, and glor- i- ous|king; * Him would we|
 [F,C]3 [C,B,]2 [F,A,] [F,A,][F,C][F,B,] | [F,A,]3 [F,C]3 [F,A,][F,A,][F,B,] | %16
w: fol- low, thro’ sun- shine and|sha- dow; Now and for-|
 [F,A,]3 [A,,C]2 [B,,D] [C,C][C,C][C,B,] | [F,A,]6 |] %18
w: ev- er His prais- es will|sing.|
V:4
 x3 | x6 F,2 x | x6 F,2 x | x9 | x9 | x6 F,2 x | x9 | x9 | x6 || x3 | x9 | x9 | x6 F,2 x | C,6 x3 | %14
 x9 | x9 | x9 | x6 |] %18

